!!!!SEGMENT: pl-wtm--1481-sp-7693--001-003_szymanowski-karol--szesc-piesni-op-20-no-3-pachna-mi-dziwnie-twoje-zlote-wlosy.krn
!!!cenid: 19xx:60
!!!COM: Szymanowski, Karol
!!!COM-rismID: pe30106403
!!!CDT: 1882-1937
!!!CNT: Polish
!!!GTL: Sześć pieśni Op. 20
!!!OTL: No. 3. Pachną mi dziwnie twoje złote włosy
!!!OMV: 003
!!!PDT: 1925
!!!AGN: Secular; Song
!!!YEC: Copyright 2022 Narodowy Instytut Fryderyka Chopina (https://polishscores.org)
!!!YEM: License CC-BY-4.0 (https://creativecommons.org/licenses/by/4.0)
!!!SMS-siglum: PL-Wtm
!!!SMS-shelfmark: 1481 śp 7693
!!!SMS-variant:
!!!SMS-altvar:
!!!SMS-shelfwork: 001-003 G
!!!NIFC-rismSourceID: 1001210639
!!!NIFC-rismChildID: 1001210639
!!!NIFC-islandoraID: pl-wtm:73423
!!!URL-pdf-islandora: https://repozytorium.nifc.pl/islandora/object/pl-wtm%3A73423/datastream/PDF/view
!!!URL-scan: https://polish.musicsources.pl/pl/lokalizacje/galeria/druki-muzyczne/18683/6 @EN{Scan on Polish Music Sources Website} @PL{Skany w portalu Dziedzictwo Muzyki Polskiej w otwartym dostępie}
!!!IIIF:
!!!ONB-nifc: UWAGA: str. 6-7.
!!!AIN: 1 canto 2 forte
!!!key: C
**kern	**kern	**dynam	**kern	**text	**text	**text	**dynam
*part3	*part2	*part2	*part1	*part1	*part1	*part1	*part1
*staff3	*staff2	*	*staff1	*staff1	*staff1	*staff1	*
*	*I"Piano.	*	*I"Canto.	*	*	*	*
*I'P-no	*I'P-no	*	*I'C.	*	*	*	*
*Iforte	*Iforte	*	*Icanto	*	*	*	*
*ICklav	*ICklav	*	*ICvox	*	*	*	*
*clefF4	*clefG2	*	*clefG2	*	*	*	*
*k[]	*k[]	*	*k[]	*	*	*	*
*C:	*C:	*	*C:	*	*	*	*
*M6/4	*M6/4	*	*M6/4	*	*	*	*
[4DD-X/ [4D-X^>	4r	p	4r	.	.	.	.
=1	=1	=1	=1	=1	=1	=1	=1
*	*^	*	*	*	*	*	*
4DD-/_ 4D-_	(4b-X~/	8cn\L 8dn 8f#X	>	4b-X\	Pach-	Le	Gar	.
.	.	8c\J 8d 8f#	] pp	.	.	.	.	.
*Xtuplet	*	*	*	*	*	*	*	*
!	!	!	!	!	!	!	!	!LO:DY:a
12DD-/L] 12D-]	4bn~/	8d-X\L 8e-X 8gn	.	4bn\	-ną	doux	selt-	<
(12GGG-X/	.	.	.	.	.	.	.	.
.	.	8d-\J 8e- 8g	.	.	.	.	.	.
12GG-X/J	.	.	.	.	.	.	.	.
[4D-X/)	4ccn~/	8dn\L 8en 8g#X	.	4cc\	mi	par-	-sam	.
.	.	8d\J 8e 8g#	.	.	.	.	.	.
12D-/L]	2.dd-X~/)	8e-X\L 8fn 8an	<	4.dd-X\	dziw-	-fum	duf-	.
(12GG-/	.	.	.	.	.	.	.	.
.	.	8e-\J 8f 8a	.	.	.	.	.	.
12G-X/J	.	.	.	.	.	.	.	.
2An~\)	.	8e-\L 8f 8a	.	.	.	.	.	.
.	.	8e-\J 8f 8a	.	8a/	-nie	de	-ten	[
.	.	8e-\L 8f#X 8a	[ <	8a/	two-	tes	dei-	.
.	.	8e-\J 8f# 8a	.	8a/	-je	che-	-ne	.
=2	=2	=2	=2	=2	=2	=2	=2	=2
!	!	!	!	!LO:TX:i:t=P:problem=kasownik w nawiasie	!	!	!	!
4BBBB#X~/ 4BBB#X~>	(2een~^>/	8en\L 8g#X 8a#X	.	2een\	zło-	-veux	gold-	.
.	.	8e\J 8g# 8a#	.	.	.	.	.	.
(12GG#X/L	.	8e\L 8g# 8a#	.	.	.	.	.	.
12BBB#/	.	.	.	.	.	.	.	.
.	.	8e\J 8g# 8a#	.	.	.	.	.	.
12BB#X/J	.	.	.	.	.	.	.	.
12C#X/L	4ddn~/	8e\L 8g# 8a#	.	4ddn\	-te	me	-nen	.
12CC#X/	.	.	.	.	.	.	.	.
.	.	8e\J 8g# 8a#	.	.	.	.	.	.
12G#X/J)	.	.	.	.	.	.	.	.
4r	4cc#X~/	8e\L 8g# 8a#	>	8cc#X\	wło-	gri-	Haare,	.
.	.	8e\J 8g# 8a#	.	8b#X\	-sy,	-se,	.	.
2EEEn~/ 2EEn	4.b#X~/	8e\L 8g# 8an	.	8r	.	.	.	.
.	.	8e\J 8g# 8a	.	8a/	jak	m'eniv-	wie	.
.	.	8e-X\L 8gn 8a	]	8a/	prze-	.	licht	.
.	8cc#~/)	8e-\J 8g 8a	.	8a/	-świet-	-re	durch-	.
!!LO:LB:g=original
=3	=3	=3	=3	=3	=3	=3	=3	=3
*	*	*	*	*^	*	*	*	*
!LO:TX:i:a:t=marc.poco	!	!	!	!	!	!	!	!	!
!LO:TX:i:a:t=m.s.	!	!	!	!	!	!	!	!	!
8dn>\L 8f#X> 8ddn>	((4g#X^/ 4gg#X	4.ryy	.	4.g#X~/	4g#X\	-lo-	com-	-sonnt,	.
8d>\J 8f#> 8dd>	.	.	.	.	.	.	.	.	.
*	*	*	*	*	*cue	*	*	*	*
8d>\L 8f#> 8dd>	8G#X^/)) 8g#	.	>	.	8g#\	.	-me	.	.
*	*	*	*	*	*Xcue	*	*	*	*
8d>\J 8f#>	8r	8ryy	]	8gn/	4.ryy	-ne,	u-	ver-	.
(4FFF#X/ 4FF#X	(4f#X~/	8A\L 8c#X	pp <	8f#X/	.	sen-	-ne	-traum-	.
.	.	8A\J 8c#	.	8f#/	.	-ne	ca-	-te	.
4AAA/ 4AA	4e#X~/	8G#X\L 8c#X	.	4.cc#X\	4.ryy	kło-	-res-	Gar-	.
.	.	8G#\J 8c#	.	.	.	.	.	.	.
4AAA#X/) 4AA#X	4en~/)	8Gn\L 8c#	.	.	.	.	.	.	.
.	.	8G\J 8c#	[	8e/	8ryy	-sy.	-se.	-ben.	.
[4BBBn^>/ [>4FF#X [4BBn	([4d#X^/	8Fn\L 8Gn 8Bn	sf	4r	4ryy	.	.	.	.
.	.	8F\J 8G 8B	>	.	.	.	.	.	.
*	*	*	*	*v	*v	*	*	*	*
=4	=4	=4	=4	=4	=4	=4	=4	=4
4BBB/] 4FF#] 4BB]	4d#/]	8F\L 8G 8B	.	8r	.	.	.	.
!	!	!	!	!	!	!	!	!LO:DY:a
.	.	8F\J 8G 8B	] pp	8d#X/	Twych	Dans	Der	<
(12FFF#X/L	4en~/	8F#X\L 8G#X 8B#X	<	4en/	o-	tes	Au-	.
12BBBBn/	.	.	.	.	.	.	.	.
.	.	8F#\J 8G# 8B#	.	.	.	.	.	.
12BBBn/J	.	.	.	.	.	.	.	.
(4FF#X~/	4fn~/	8Gn\L 8An 8c#X	.	4fn/	-czu	beaux	-gen	.
.	.	8G\J 8A 8c#	.	.	.	.	.	.
12FFn/L)	2.g-X~/)	8A-X\L 8B-X 8dn	.	(4g-X/	la-	yeux	Blau-	.
12BBBn/	.	.	.	.	.	.	.	.
.	.	8A-\J 8B- 8d	.	.	.	.	.	.
12BBn/J)	.	.	.	.	.	.	.	.
2Dn~\	.	8A-\L 8B- 8d	.	4ddn\)	-zur,	.	-e,	[
.	.	8A-\J 8B- 8d	[	.	.	.	.	.
.	.	8A-\L 8Bn 8d	.	8r	.	.	.	.
.	.	8A-\J 8cn 8d	.	8dd\	jak	d'a-	ist	.
!!LO:LB:g=original
=5	=5	=5	=5	=5	=5	=5	=5	=5
*	*	*	*	*^	*	*	*	*
4EEE#X~/ 4EE#X	(2a^/	8A\L 8c#X 8d#X	.	4.a/	4.ryy	górs-	-zur	wie	.
.	.	8A\J 8c# 8d#	.	.	.	.	.	.	.
(12CC#X/L	.	8A\L 8c# 8d#	.	.	.	.	.	.	.
12EEE#/	.	.	.	.	.	.	.	.	.
.	.	8A\J 8c# 8d#	.	8a/	8ryy	-kie	som-	ein	.
12EE#X/J	.	.	.	.	.	.	.	.	.
12FF#X/L	4gn/	8A\L 8c# 8d#	.	4gn/	8g\	je-	-meil-	See der	.
12FFF#X/	.	.	.	.	.	.	.	.	.
*	*	*	*	*	*cue	*	*	*	*
.	.	8A\J 8c# 8d#	.	.	8g\	.	.	.	.
*	*	*	*	*	*Xcue	*	*	*	*
12C#X/J)	.	.	.	.	.	.	.	.	.
4r	4f#X~/	8A\L 8c# 8dn	.	8f#X/	8ryy	-zio-	-le	Ber-	.
.	.	8A\J 8c# 8d	<	8e#X/	8ryy	-ra,	.	-ge,	.
2AAA~/ 2AA	4.e#X/	8A\L 8c# 8d	.	8r	8ryy	.	.	.	.
.	.	8A\J 8c# 8d	.	[8cc#X\	8ryy	wktó-	le	da-	.
.	.	8A-X\L 8cn 8d	[ <	12cc#\]	4ryy	.	som-	.	.
.	.	.	.	12cc#\	.	-rych	-bre	-rin-	.
.	8f#~/)	8A-\J 8c 8d	.	.	.	.	.	.	.
.	.	.	.	12cc#\	.	się	my-	-nen	.
*	*	*	*	*v	*v	*	*	*	*
=6	=6	=6	=6	=6	=6	=6	=6	=6
!LO:TX:i:b:t=poco	!	!	!LO:DY:b=2	!	!	!	!	!
8Gn~\L 8B 8gn	((4c#X^/ 4cc#X	4.ryy	sf	4.cc#X\	pła-	-ste-	sich	.
8G~\J 8B [8g	.	.	.	.	.	.	.	.
8G\L 8B 8g]	8C#X/)) 8c#	.	.	.	.	.	.	.
8G~\J 8B	8r	8ryy	>	8ccn\	-wi	-re	der	.
*	*clefF4	*	*	*	*	*	*	*
((4BBB/ 4BB	(4B/	8D\L 8F#X	.	8b\	czar-	des	schar-	.
.	.	8D\J 8F#	.	8b\	-na	lacs	-ze	.
!	!	!	!LO:HP:t=dimin.	!LO:TX:i:a:t=rallent.	!	!	!	!
2DD~/)) 2D	4A#X/	8C#X\L 8F#	] >	8a#X/	sy-	bleu-	A-	.
!	!	!	!	!	!	!	!	!LO:DY:a
.	.	8C#\ 8F#	.	8a#/	-ko-	-set	-horn	>
.	4An/)	8Cn\ 8F#	pp	8f#X/	-mo-	cal-	spie-	.
.	.	8C\J 8F#	.	8f#/	-ra.	-mes.	-gelt.	.
8Cn\L 8An	4F#X~\ [(4f#X	4ryy	.	4r	.	.	.	]
8C\J 8A#X	.	.	.	.	.	.	.	.
*	*v	*v	*	*	*	*	*	*
*	*clefG2	*	*	*	*	*	*
!!LO:PB:g=original
=7	=7	=7	=7	=7	=7	=7	=7
*	*^	*	*^	*	*	*	*
*	*	*^	*	*	*	*	*	*	*
!	!	!	!	!	!LO:TX:i:a:t=a tempo	!	!	!	!	!
8.GGG#X/L 8.GG#X	(4f#X~/])	8Bn\L 8d#X	2.ryy	p	8rdd	8ryy	.	.	.	.
.	.	8B\J 8d#	.	.	8f#X/	8ryy	A	Les	Und	.
(16GGGn/Jk 16GGn	.	.	.	.	.	.	.	.	.	.
!	!	!	!	!LO:HP:a	!	!	!	!	!	!
8.BBB/L)	4g~/	8B\L 8d#	.	<	4g/	8g\	two-	flammes	dei-	.
*	*	*	*	*	*	*cue	*	*	*	*
.	.	8B\J 8d#	.	.	.	8g\	.	.	.	.
*	*	*	*	*	*	*Xcue	*	*	*	*
(16FFF#X/Jk 16FF#X	.	.	.	.	.	.	.	.	.	.
8.BBB/L)	4g#X~/	8B\L 8d#	.	.	4g#X/	4ryy	je	ar-	-ne	.
.	.	8B\J 8d#	.	.	.	.	.	.	.	.
16CCC#X/Jk 16CC#X	.	.	.	.	.	.	.	.	.	.
!	!	!	!	!LO:HP:a	!	!	!	!	!	!LO:DY:a
2.EE^\ 2.E#X	4a^/	8B\L 8d#	(4A^\	[ >	(2b^\	2ryy	u-	-den-	Lip-	<
.	.	8B\J 8d#	.	.	.	.	.	.	.	.
.	4g#~/	8B\L 8d#	4G#X<~/	.	.	.	.	.	.	.
.	.	8B\J 8d#	.	.	.	.	.	.	.	.
.	.	.	.	.	8qdd#X/	.	.	.	.	[
.	4gn~/)	8B\L 8d#	4Gn<~/)	]	8dd#y\)	8ryy	-sta,	-tes	-pen	.
.	.	8B\J 8d#	.	.	8dd#\	8ryy	pach-	de	sind	.
*	*	*	*	*	*v	*v	*	*	*	*
=8	=8	=8	=8	=8	=8	=8	=8	=8	=8
8.GGG#X/L 8.GG#X	4F#X~/ 4f#X	8B\L 8d#X	2.ryy	.	4cc#X^\	-ną-	tes	lieb-	.
.	.	8B\J 8d#	.	.	.	.	.	.	.
(16GGGn/Jk 16GGn	.	.	.	.	.	.	.	.	.
!	!	!	!	!LO:HP:a	!	!	!	!	!
8.BBB/L)	4G~/ 4g	8B\L 8d#	.	<	4.bn\	-ce,	lev-	-lich,	.
.	.	8B\J 8d#	.	.	.	.	.	.	.
(16FFF#X/Jk 16FF#X	.	.	.	.	.	.	.	.	.
!	!	!	!	!LO:HP:a	!	!	!	!	!
8.BBB/L)	4G#X~/ 4g#X	8B\L 8d#	.	[ <	.	.	.	.	.
.	.	8B\J 8d#	.	.	8b\	jak	-res	wie	.
[16EEE#X/Jk [16EE#X	.	.	.	.	.	.	.	.	.
!	!	!	!	!	!	!	!	!	!LO:DY:a
4EEE#/] 4EE#]	4a^/	8B\L 8d#	4A^/	.	4.b\	ró-	rou-	Ro-	<
.	.	8B\J 8d#	.	.	.	.	.	.	.
*tuplet	*	*	*	*	*	*	*	*	*
12BB\L	4g#X~/	8B\L 8d#	4G#X~/	.	.	.	.	.	.
12EE#\	.	.	.	.	.	.	.	.	.
.	.	8B\J 8d#	.	.	8b\	-że,	-ges	-sen,	.
[<12BB\J	.	.	.	.	.	.	.	.	.
4BB\]	4gn~/	8B\L 8d#	4F#~/	.	4r	.	.	.	.
.	.	8B\J 8d#	.	.	.	.	.	.	.
!!LO:LB:g=original
=9	=9	=9	=9	=9	=9	=9	=9	=9	=9
*^	*	*	*	*	*^	*	*	*	*
8EEEn^/ 8EEn	8ryy	8g#X/ 8gg#X^>	8ryy	1.r	sf	8r	8ryy	.	.	.	.
8Dn\ 8En 8en	8ryy	([8g#X^/	8G#X^\	.	.	4g#X~/	8g#\	chłod-	fremis-	kuhl,	.
*	*	*	*	*	*	*	*cue	*	*	*	*
8D\L 8E 8e	2G#X/	2g#/_	(8A#X^\L	.	.	.	8g#\	.	.	.	.
*	*	*	*	*	*	*	*Xcue	*	*	*	*
[<8D\J [8E 8e	.	.	8c#X^\J	.	.	8g#/	8ryy	-ne,	-sent	wie	.
8D\L] 8E]	.	.	8e^\L	.	.	4g#/	4ryy	jak	dans	ein	.
8Dn'\J 8E	.	.	8d#X^\J)	.	.	.	.	.	.	.	.
[(4EEn^/	2.ryy	(4g#X~/])	(8G#X\L 8Bn 8dn	.	>	4g#/	4ryy	pło-	le	Feu-	.
.	.	.	8G#\J 8B 8d	.	.	.	.	.	.	.	.
12EE/L]	.	4gn~/	8G#X\L 8B 8d	.	.	4gn/	4ryy	-mień	cal-	-er	.
12AAA#X/	.	.	.	.	.	.	.	.	.	.	.
.	.	.	8G#\J 8B 8d	.	]	.	.	.	.	.	.
12AA#X/J)	.	.	.	.	.	.	.	.	.	.	.
([4F#X^\	.	[4f#X~/	8G#\L 8B 8d	.	.	4f#X/	4ryy	za-	-me	ver-	.
.	.	.	8G#\J 8B 8d	.	.	.	.	.	.	.	.
*v	*v	*	*	*	*	*v	*v	*	*	*	*
*	*v	*v	*v	*	*	*	*	*	*
=10	=10	=10	=10	=10	=10	=10	=10
*M9/4	*M9/4	*	*M9/4	*	*	*	*
*	*^	*	*	*	*	*	*
*	*	*^	*	*	*	*	*	*
4F#\]	4f#~/]	8A-X\L 8B-X 8d	2.ryy	.	4b-X\	-klę-	d'un	-schlos-	.
.	.	8A-\J 8B- 8d	.	>	.	.	.	.	.
4Fn~\	4fn~/	8A-\L 8B- 8d	.	.	4an/	-ty	froid	-sen	.
.	.	8A-\J 8B- 8d	.	.	.	.	.	.	.
4F-X~\)	4f-X~/)	8A-\L 8B- 8d	.	]	4a-X/	wmar-	sou-	in	.
.	.	8A-\J) 8B- 8d	.	.	.	.	.	.	.
8.BBB-X/L 8.BB-X	(4a-X~/	8d-X\L 8f-X	2.ryy	p <	[2.dd-X^\	-mu-	-ri-	Mar-	.
.	.	8d-\J 8f-	.	.	.	.	.	.	.
16AAAn/Jk 16AAn	.	.	.	.	.	.	.	.	.
8.DD-X^>/L	4an~/	8d-\L 8f-	.	.	.	.	.	.	.
.	.	8d-\J 8f-	.	.	.	.	.	.	.
(16AAA-X/Jk 16AA-X	.	.	.	.	.	.	.	.	.
8.DD-^/L)	4b-X~/	8d-\L 8f-	.	.	.	.	.	.	.
.	.	8d-\J 8f-	.	.	.	.	.	.	.
[16GGGn^/Jk [>16GGn	.	.	.	.	.	.	.	.	.
2GGG\] 2GG]	4cc-X~/	8d-\L 8f-	4c-X<~/	[	4dd-\]	.	.	.	.
.	.	8d-\J 8f-	.	.	.	.	.	.	.
.	4b-~/	8d-\L 8f-	4B-X<~/	.	4f-X/	-rze	-re	-mor.	.
.	.	8d-\J 8f-	.	.	.	.	.	.	.
4ryy	4an~/)	8d-\L 8f-	4An<~/	.	4r	.	.	.	.
.	.	8d-\J 8f-	.	.	.	.	.	.	.
*	*v	*v	*v	*	*	*	*	*	*
!!LO:LB:g=original
=11	=11	=11	=11	=11	=11	=11	=11
*M6/4	*M6/4	*	*M6/4	*	*	*	*
*	*^	*	*^	*	*	*	*
*	*	*^	*	*	*	*	*	*	*
8.BBB-X^>/L 8.BB-X	(4a-X~/	8d-X\L 8fn	2.ryy	<	8r	2ryy	.	.	.	.
.	.	8d-\J 8f	.	.	8a-X/	.	W o-	tes	Im	.
(16AAAn/Jk 16AAn	.	.	.	.	.	.	.	.	.	.
8.DD-X^>/L)	4an~/	8d-\L 8f	.	.	4an/	.	-gro-	seins	Gar-	.
.	.	8d-\J 8f	.	.	.	.	.	.	.	.
(16AAA-X/Jk 16AA-X	.	.	.	.	.	.	.	.	.	.
8.DD-^>/L)	4b-X~/	8d-\L 8f	.	[ <	4b-X/	8b-\	-dach	de	-ten der	.
*	*	*	*	*	*	*cue	*	*	*	*
.	.	8d-\J 8f	.	.	.	8b-\	.	.	.	.
*	*	*	*	*	*	*Xcue	*	*	*	*
[16GGGn/Jk [16GGn	.	.	.	.	.	.	.	.	.	.
!	!	!	!	!	!	!	!	!	!	!LO:DY:a
2.GGG\] 2.GG]	4cc-X~/	8d-\L 8f	4c-X<~/	.	(2dd-X\	2.ryy	pier-	nei-	Bru-	<
.	.	8d-\J 8f	.	.	.	.	.	.	.	.
.	4b-~/	8d-\L 8f	4B-X<~/	.	.	.	.	.	.	.
.	.	8d-\J 8f	.	.	.	.	.	.	.	.
.	.	.	.	.	8qffn/	.	.	.	.	[
.	4an~/)	8d-\L 8f	4An<~/	.	8ff\)	.	-si	-ge	-ste	.
.	.	8d-\J 8f	.	.	8ff\	.	kwit-	res-	sind	.
*	*	*	*	*	*v	*v	*	*	*	*
=12	=12	=12	=12	=12	=12	=12	=12	=12	=12
8.BBB-X^>/L 8.BB-X	(4A-X~/ 4a-X	8d-X\L 8fn	2.ryy	<	4.ee-X^\	-ną-	-sem-	blu-	.
.	.	8d-\J 8f	.	.	.	.	.	.	.
(16AAAn/Jk 16AAn	.	.	.	.	.	.	.	.	.
8.DD-X^>/L)	4An~/ 4an	8d-\L 8f	.	.	.	.	.	.	.
.	.	8d-\J 8f	.	.	8dd-X\	-ce	-blent	-hen-	.
(16AAA-X/Jk 16AA-X	.	.	.	.	.	.	.	.	.
8.DD-^>/L)	4B-X~/ 4b-X	8d-\L 8f	.	.	4dd-\	ja-	aux	-de	.
.	.	8d-\J 8f	.	.	.	.	.	.	.
[16GGGn/Jk [<16GGn	.	.	.	.	.	.	.	.	.
!LO:N:vis=2	!	!	!	!	!	!	!	!	!
4GGG/] 4GG]	4cc-X~/	8d-\L 8f	(<4c-X\	.	2dd-\	-bł-	ro-	Ap-	.
.	.	8d-\J 8f	.	[	.	.	.	.	.
(<12D-X\L	4b-~/	8d-\L 8f	4B-X</	.	.	.	.	.	.
12GGn\	.	.	.	.	.	.	.	.	.
.	.	8d-\J 8f	.	.	.	.	.	.	.
[<12D-\J	.	.	.	.	.	.	.	.	.
4D-\])	4an~/)	8d-\L 8f	4An</)	.	4dd-\	-nie,	-ses	-fel,	.
.	.	8d-\J 8f	.	.	.	.	.	.	.
*	*	*v	*v	*	*	*	*	*	*
!!LO:PB:g=original
=13	=13	=13	=13	=13	=13	=13	=13	=13
8GGG-X^>/ 8GG-X	8b-X\ 8bb-X	8ryy	sf	4r	.	.	.	.
(8F-X~\L 8G-X 8B-X	[8b-/	(8B-X^\	.	.	.	.	.	.
!	!	!	!LO:HP:a	!	!	!	!	!
8F-~\J 8G- 8B-	2b-/_	8cn^\L	<	8r	.	.	.	.
4F-~\ 4G- 4B-	.	8e-X^\J	.	8b-X\	ja-	dans	die	.
.	.	8g-X^\L	.	8b-\	-ko-	les	ne-	.
!LO:TX:t=P:problem=bemol w nawiasie	!	!	!	!	!	!	!	!
8F-X~\) 8G- 8B-	.	8fn^\J)	.	8b-\	-by	jar-	-bel-	.
([4GG-X~/	(4b-~/]	8B-X\L 8d-X 8en	[ <	4.b-\	księ-	-dins	-feucht	.
.	.	8B-\J 8d- 8e	.	.	.	.	.	.
12GG-/L]	4an~/	8B-\L 8d- 8e	.	.	.	.	.	.
12CC/	.	.	.	.	.	.	.	.
.	.	8B-\J 8d- 8e	[ <	8an/	-życ	rem-	der	.
12C/J	.	.	.	.	.	.	.	.
([4A-X^\)	[4a-X~/	8B-\L 8d- 8e	.	4a-X/	wgieł	-plis	Mond	.
.	.	8B-\J 8d- 8e	.	.	.	.	.	.
=14	=14	=14	=14	=14	=14	=14	=14	=14
4A-\]	4a-/]	8B-X\L 8cn 8en	.	4cc\	srebr-	de	sil-	.
.	.	8B-\J 8c 8e	.	.	.	.	.	.
4G\	4g~/	8B-\L 8c 8e	.	4bn\	-nych	.	-bern	.
.	.	8B-\J 8c 8e	.	.	.	.	.	.
!	!LO:TX:i:b:t=e poco avivando	!	!	!	!	!	!	!
4G-X\)	4g-X~/)	8B-\L 8c 8e	[	4b-X\	o-	my-	ver-	.
.	.	8B-\J 8c 8e	.	.	.	.	.	.
8.CC^>/L 8.C	(4B-~/ 4b-X	8e-X\L 8g-	.	4.ee-X\	-po-	-ste-	-schlei-	.
.	.	8e-\J 8g-	.	.	.	.	.	.
(16BBBn/Jk 16BBn	.	.	.	.	.	.	.	.
8.EE-X^>/L)	4Bn~/ 4bn	8e-\L 8g-	<	.	.	.	.	.
.	.	8e-\J 8g-	.	8g-X/	-nie.	-re	-ert,	.
(16BBB-X/Jk 16BB-X	.	.	.	.	.	.	.	.
8.EE-^>/L)	4c~/ 4cc	8e-\L 8g-	.	4r	.	.	.	.
.	.	8e-\J 8g-	.	.	.	.	.	.
[16AAAn/Jk [16AAn	.	.	.	.	.	.	.	.
!!LO:LB:g=original
=15	=15	=15	=15	=15	=15	=15	=15	=15
*^	*	*	*	*	*	*	*	*
!	!	!	!	!	!LO:TX:i:a:t=accelerando	!	!	!	!LO:DY:t=crescendo sempre
4AAA/] 4AA]	4EE-X\	4d-X~/ 4dd-X	8e-X\L 8g-X	[	4dd-X\	Bio-	Et	Huf-	<
.	.	.	8e-\J 8g-	.	.	.	.	.	.
(12E-X/L	2ryy	4c~/ 4cc	8e-\L 8g-	.	4.cc\	-dra	la	-ten	.
12AA/	.	.	.	.	.	.	.	.	.
.	.	.	8e-\J 8g-	.	.	.	.	.	.
12E-/J	.	.	.	.	.	.	.	.	.
4An\)	.	4c-X~/) 4cc-X	8e-\L 8g-	.	.	.	.	.	.
.	.	.	8e-\J 8g-	.	8cc-X\	to-	splen-	aus	.
8.CC^>/L 8.C	2.ryy	(4B-X^/ 4b-X	8e-X\L 8gn	.	4.ee-X\	-czo-	-deur	wei-	.
.	.	.	8e-\J 8g-X	.	.	.	.	.	.
(16BBBn/Jk 16BBn	.	.	.	.	.	.	.	.	.
8.EE-X^>/L)	.	4Bn~/ 4bn	8e-\L 8g-	.	.	.	.	.	.
.	.	.	8e-\J 8g-	.	8ccn\	-ne	.	-sen	.
(16BBB-X/Jk 16BB-X	.	.	.	.	.	.	.	.	.
8.EE-^>/L)	.	4c-~/ 4cc-	8e-\L 8g-	.	8cc\	ze	de	El-	.
!	!	!	!	!	!	!	!	!	!LO:DY:a
.	.	.	8e-\J 8g-	.	8cc\	sło-	tes	-fen-	<
[16AAAn/Jk [16AAn	.	.	.	.	.	.	.	.	.
=16	=16	=16	=16	=16	=16	=16	=16	=16	=16
*	*	*	*	*	*^	*	*	*	*
!	!	!	!	!	!LO:TX:i:a:t=poco sosten.	!	!	!	!	!
4AAA^/] 4AA]	4EE-X\	4d-X~/ 4dd-X	8e-X\L 8g	.	2ee-X\	4.ee-/	-nio-	han ches	-bein	.
.	.	.	8e-\ 8g	.	.	.	.	.	.	.
(12E-X/L	2ryy	4c~/ 4cc	8e-\ 8g	.	.	.	.	.	.	.
12AA/	.	.	.	.	.	.	.	.	.	.
.	.	.	8e-\ 8g	.	.	8ee-/	.	.	.	.
12E-/J	.	.	.	.	.	.	.	.	.	.
4An\)	.	4c-X~/) 4cc-X	8e-\ 8g	.	4gg\	4ryy	-wej	d'i-	ge-	.
.	.	.	8e-\J 8g	.	.	.	.	.	.	.
!	!	!	!	!	!	!	!	!	!	!LO:DY:a
(4AAA-X^>/ (4AA-X	2.ryy	(2B-X^/ 2b-X	8d-X\L 8e-X 8g-X	.	2gg-X\	2ryy	koś-	-voi-	-schnit-	[ f
.	.	.	8d-\J 8e- 8g-	.	.	.	.	.	.	.
(4E-X^\))	.	.	8d-\L 8e- 8g-	.	.	.	.	.	.	.
.	.	.	8d-\J 8e- 8g-	.	.	.	.	.	.	.
4F\)	.	4Bn^/ 4bn	8dn\L 8f 8a-X	.	4ff\	4ryy	-ci,	-re	-ten,	.
.	.	.	8d\J 8f 8a-	.	.	.	.	.	.	.
*	*	*	*	*	*v	*v	*	*	*	*
!!LO:LB:g=original
=17	=17	=17	=17	=17	=17	=17	=17	=17	=17
(2F#X^/	4r	4Bn^/ 4bn	8d#X\L 8f#X 8an	<	4ee-X\	ja-	est	sind	.
.	.	.	8d#\J 8f# 8a	.	.	.	.	.	.
.	4AAA-X\ 4AA-X	4cn^/ 4ccn	8d#\L 8f# 8a	.	4.g-X/	-ko	cel-	wie	.
.	.	.	8e-X\J 8f# 8a	.	.	.	.	.	.
4Gn/)	4r	4d-X^/) 4dd-X	8f-X\L 8b-X	[	.	.	.	.	.
.	.	.	8f-\J 8b-	.	8dd-X\	in-	-le	ein	.
(4BBn^\ 4G#X	4ryy	(2ddn^/	8dn\L 8fn	.	4.ggn^\	-dyj-	d'un	in-	.
.	.	.	8d\J 8f	.	.	.	.	.	.
4ryy	4AAA-X/ 4AA-X	.	8d\L 8f	<	.	.	.	.	.
.	.	.	8d\J 8fn	.	8ff#X\	-ska	tem-	-di-	.
4Cn\) 4An	4ryy	4dd#X/	8d#X\L 8f#X	.	4dd#X\	świą-	-ple in-	-scher	.
.	.	.	8d#\J 8f#	.	.	.	.	.	.
*v	*v	*	*	*	*	*	*	*	*
*	*v	*v	*	*	*	*	*	*
=18	=18	=18	=18	=18	=18	=18	=18
*M9/4	*M9/4	*	*M9/4	*	*	*	*
*	*^	*	*^	*	*	*	*
(4C#X^\ 4B-X	2.een/)	8en\L 8gn	.	4cc#X\	4ryy	-ty-	-dou	Tem-	.
.	.	8e\J 8g	.	.	.	.	.	.	.
*	*	*	*	*	*cue	*	*	*	*
4AAA-X/ 4AA-X	.	8e\L 8g	.	4.en/	4.cc#/	-nia	plein	-pel	.
.	.	8e\J 8g	.	.	.	.	.	.	.
4D#X\) 4Bn	.	8e\L 8g	[	.	.	.	.	.	.
.	.	8e\J 8g	.	8e/	8cc#/	mi-	de	der	.
!	!	!	!LO:HP:a:t=molto crescendo	!	!	!	!	!	!
4F-X^\ 4d-X	2.a-X^/	8B--\L 8f-X	<	(2a-X/	(2een/	-ło-	re-	Lie-	.
.	.	8B--\J 8f-	.	.	.	.	.	.	.
!	!LO:TX:i:a:t=allargando	!	!	!	!	!	!	!	!
4EEE-X^/ 4EE-X	.	8B--\L 8f-	.	.	.	.	.	.	.
.	.	8B--\J 8f-	.	.	.	.	.	.	.
!LO:TX:t=P:problem=4B- w nawiasie	!	!	!	!	!	!	!	!	!
4D-X\ 4B-X	.	8B-X\L 8f-	.	4c#X/)	4en/)	-ści.	-ves.	-be.	.
*	*	*	*	*	*Xcue	*	*	*	*
.	.	8B-\J 8f-	.	.	.	.	.	.	.
(4Fn\ 4e-X	2.an^/	8Bn\L 8fn	.	4r	2ryy	.	.	.	.
.	.	8B\J 8f	.	.	.	.	.	.	.
4EEE-^/ 4EE-	.	8B\L 8f	.	4r	.	.	.	.	.
.	.	8B\J 8f	.	.	.	.	.	.	.
!LO:TX:t=P:problem=4c w nawiasie	!	!	!	!	!	!	!	!	!
4E-X\) 4c	.	8cn\L 8f	.	8r	4ryy	.	.	.	.
.	.	8c\J 8f	.	8an/	.	O	Ah!	O	.
*	*v	*v	*	*	*	*	*	*	*
*	*	*	*v	*v	*	*	*	*
!!LO:PB:g=original
=19	=19	=19	=19	=19	=19	=19	=19
*M6/4	*M6/4	*	*M6/4	*	*	*	*
*^	*	*	*	*	*	*	*
!	!	!	!	!LO:TX:B:a:t=Poco meno.	!	!	!	!LO:DY:a
2.Cn/ 2.En 2.An 2.cn	8r	[2.an\ [2.ccn [2.een [2.aan	ff >	([2.aan^\	przyjdź!	viens!	komm!	ff
*	*	*	*	*	*^	*	*	*
!	!	!	!	!	!	!LO:HP:=2	!	!	!
.	(8EEE\	.	.	.	.	<	.	.	.
.	8EE\L	.	.	.	.	.	.	.	.
.	8AA\J	.	.	.	.	.	.	.	.
.	8C\L	.	.	.	.	.	.	.	.
.	8E\J	.	.	.	.	[	.	.	.
*	*	*	*	*	*v	*v	*	*	*
!	!	!	!	!	!	!	!	!LO:DY:a
4ryy	8A\L)	4a\] 4cc] 4ee] 4aa]	]	4aa\]	.	.	.	>
.	[8EEE\J [8EE	.	.	.	.	.	.	.
2C#X/ 2E 2B-X 2c#X	8EEE\L] 8EE]	[2gn\ [2b-X [2een [2ggn	>	[2ggn\	.	.	.	]
.	(>8EE\	.	.	.	.	.	.	.
.	8C#X\	.	.	.	.	.	.	.
.	8G\J	.	.	.	.	.	.	.
*v	*v	*	*	*	*	*	*	*
=20	=20	=20	=20	=20	=20	=20	=20
*	*^	*	*	*	*	*	*
8eZ\)	8gZ\] 8b-] 8ee] 8gg]	8ryy	.	8gg\])	.	.	.	.
(8EEE/	(8dd^/ 8ffn	([8f\ [8g#X	] mp	8r	.	.	.	.
!	!	!	!LO:HP:t=dimin.	!	!	!	!	!
8EE/L	8cc~/L 8ee	2f\]) 2g#]	>	4r	.	.	.	.
8BB/J	8bn~/J 8dd	.	.	.	.	.	.	.
8D\L	8a~/L 8cc	.	.	4r	.	.	.	.
8G#X\J	8b~/J 8dd	.	.	.	.	.	.	.
!LO:TX:i:a:t=P:problem=mixed beam	!	!	!	!	!	!	!	!
8B\L)	8gn~>/L) 8b	2.ryy	pp	8r	.	.	.	.
(8EEE/J	(8f~>/J 8dd	.	>	8ddn~\	Na	j'ins	Auf	.
8EE/L	8e~>/L 8cc	.	.	8ccn~\	liś-	cris	wel-	.
8GG#X/J	8d~>/J 8b	.	.	8bn~\	-ciach	sur	-ke	.
8D\L	8c~>/L 8a	.	.	8an~/	zwięd-	des	Blat-	.
8G#X\J)	8d'/J) 8b	.	]	8b'\	-łych	feuilles	-ter	.
=21	=21	=21	=21	=21	=21	=21	=21	=21
*^	*	*	*	*	*	*	*	*
2BB#X~/ 2D#X 2F#X 2G#X	8r	(2d#X~/ 2f#X 2g#X	(2B#X~\	pp	4.g#X/	pi-	mor-	schreib	.
!	!	!	!	!LO:HP:b=2	!	!	!	!	!
.	(<8EEE\	.	.	<	.	.	.	.	.
.	8EE\L	.	.	.	.	.	.	.	.
.	8BB#X\J	.	.	[	8g#/	-szę	-tes	ich	.
4En/) 4Gn 4Bn	8C#X\L	4en/) 4gn 4bn	8c#X\L	.	8r	.	.	.	.
.	8Dn\J	.	8dn\J)	.	8b\	ten	mes	den	.
(2BB#X~/ 2D#X 2F#X 2G#X	8r	(2d#X~/ 2f# 2g#X	(2B#~\	.	2g#X~/	sen	son-	Traum	.
.	(8EEE\	.	.	.	.	.	.	.	.
.	8EE\L	.	.	.	.	.	.	.	.
.	8BB#X\J	.	.	.	.	.	.	.	.
4En/) 4Gn 4Bn	8C#X\L	4e/) 4gn 4b	8c#X\L	.	4b~\	mój	-ges,	dir	.
.	8Dn\J	.	8dn\J)	.	.	.	.	.	.
*v	*v	*	*	*	*	*	*	*	*
!!LO:LB:g=original
=22	=22	=22	=22	=22	=22	=22	=22	=22
!	!LO:N:vis=8	!	!	!	!	!	!	!
8En\)	4a-X~/	4B-X\ 4cn 4en	.	4r	.	.	.	.
(4EEEn~/	.	.	.	.	.	.	.	.
!	!	!	!	!	!	!	!	!LO:DY:a
!	!	!	!	!	!	!	!	!LO:DY:a
.	4an~/	4Bn\ 4c#X 4e#X	ppp <	4an/	o-	mon	lie-	pp <
4EEn~/	.	.	.	.	.	.	.	.
.	4a#X~/	4cn\ 4dn 4f#X	.	4a#X/	-błą-	i-	-bes-	[
[8En~\	.	.	.	.	.	.	.	.
2.E\])	2.bn/	8c#X\ 8d#X 8f##X	[ >	2bn\	-ka-	-vres-	-trun-	.
.	.	4c#\ 4d# 4f##	.	.	.	.	.	.
.	.	4c#\ 4d# 4f##	.	.	.	.	.	.
.	.	.	.	4gn/	-ny,	-se,	-ken,	.
.	.	8c#\ 8d# 8f##	]	.	.	.	.	.
*	*v	*v	*	*	*	*	*	*
=23	=23	=23	=23	=23	=23	=23	=23
*M9/4	*M9/4	*	*M9/4	*	*	*	*
*	*^	*	*	*	*	*	*
4AAAA#X~/ 4AAA#X	(2ddn~/	8dn\ 8f#X 8g#X	.	2.r	.	.	.	.
.	.	4d\ 4f# 4g#	.	.	.	.	.	.
*Xtuplet	*	*	*	*	*	*	*	*
(12FF#X/L	.	.	.	.	.	.	.	.
12AAA#/	.	.	.	.	.	.	.	.
.	.	4d\ 4f# 4g#	.	.	.	.	.	.
12AA#X/J	.	.	.	.	.	.	.	.
12BBn/L	4ccn/	.	.	.	.	.	.	.
12BBBn/	.	.	.	.	.	.	.	.
.	.	8d\ 8f# 8g#	.	.	.	.	.	.
[>12F#X/J	.	.	.	.	.	.	.	.
!	!LO:TX:i:a:t=allarg.	!	!	!	!	!	!	!
4F#\])	4b/	8d\ 8f# 8gn	.	2.r	.	.	.	.
.	.	4d\ 4f# 4g#X	<	.	.	.	.	.
2DDDn/ 2DDn	4.a#X/	.	.	.	.	.	.	.
.	.	4c#X\ 4fn 4g#	.	.	.	.	.	.
.	8b/)	8c#\ 8f 8g#	.	.	.	.	.	.
*clefG2	*	*	*	*	*	*	*	*
(8cn~/ 8en 8ccn	(4f#X~\ 4ff#X	4ryy	[ sf >	4r	.	.	.	.
!LO:TX:i:b:t=rallent. molto	!	!	!	!	!	!	!	!
4c~/ 4e 4cc	.	.	.	.	.	.	.	.
.	4F#X~Z/) 4f#	2ryy	.	4r	.	.	.	.
8c~Z/) 8e	.	.	]	.	.	.	.	.
*clefF4	*	*	*	*	*	*	*	*
!	!	!	!	!LO:TX:i:a:t=a tempo	!	!	!	!
4EEE/ 4EE	4Gn/ 4Bn 4e	.	pp	8bn\	Rzu-	le	mo-	.
.	.	.	.	8b\	-cam	flot	-gen	.
*	*v	*v	*	*	*	*	*	*
*	*clefF4	*	*	*	*	*	*
=24	=24	=24	=24	=24	=24	=24	=24
*M6/4	*M6/4	*	*M6/4	*	*	*	*
*	*	*	*^	*	*	*	*
!	!	!	!LO:TX:i:a:t=(tranquillo)	!	!	!	!	!
*	*	*	*	*cue	*	*	*	*
[1.GGG [1.GG	(4Fn~\ 4Bn 4d#X	pp	4b-X\	8b-/	je	de mes	sie	.
.	.	.	.	8b-/	.	.	.	.
*	*	*	*	*Xcue	*	*	*	*
.	2F#X^\) 2c 2e	.	4.b-X~\	4.ryy	w stru-	lar	auf	.
.	.	.	8a/	8ryy	-mień	mes	der	.
.	(4Fn~\ 4Bn 4d#X	.	4bn^\	4ryy	łez	l'em-	Flut	.
.	([2F#X~\) [2c [2e	.	4.b-X\	4.ryy	mo-	-por-	mei-	.
.	.	.	[8an/	8ryy	-ich	-te	-ner	.
*	*	*	*v	*v	*	*	*	*
*	*clefG2	*	*	*	*	*	*
!!LO:LB:g=original
=25	=25	=25	=25	=25	=25	=25	=25
!	!LO:TX:i:b:t=rall.	!	!	!	!	!	!
(4GGG/] 4GG]	4F#/] 4c] 4e]	>	8a/]	.	vers	Tra-	.
.	.	.	8a-X/	wez-	le	-nen	.
2CCC/) 2CC	4An~/ [4e-X 4gn	.	4g/	-bra-	bleu	in	.
.	4A#X~/) 4e-] 4f#X	] pp	4f#X/	-ny,	pa-	des	.
*	*^	*	*	*	*	*	*
(2CC/ 2C	(2B-X/ 2b-X	4e-X\ 4g-X	<	2b-X\	niech	-ys,	Him-	.
!	!LO:TX:i:a:t=rallent.	!	!	!	!	!	!	!
.	.	[4en\ 4gn	.	.	.	.	.	.
4BBBn/) 4BBn	4Bn/ 4bn	4e\] 4g#X	[ <	4bn\	w a-	le	-mels	.
=26	=26	=26	=26	=26	=26	=26	=26	=26
*^	*	*	*	*	*	*	*	*
.	((8qAAAn\ 8qAAn	.	.	.	.	.	.	.	.
*	*^	*	*	*	*	*	*	*	*
(4Bn~/ 4dn	2AAA\)) 2AA	2E\	4bn~/ 4ddn	2e\	mp	4dd~\	-niel-	loin-	stil-	.
4A/) 4c#X	.	.	4a/ 4cc#X	.	>	4cc#X\	-skie	-tain	-le	.
4ryy	4CC#X/ 4C#X	4ryy	4B/) 4e#X 4g#X 4b	4ryy	]	4b\	od-	pa-	Gluck-	.
!	!	!	!	!	!	!	!	!	!	!LO:DY:a
2.ryy	(>2.FF#X/ 2.E 2.F#X	2ryy	(>2.A#X~>/ 2.f#X 2.a#X	4ryy	pp	4a#X/	-pły-	-ys	-se-	<
.	.	.	.	2ryy	.	4b\	-ną	de	-lig-	.
.	.	4ryy	.	.	.	4cc#\	za-	mes	-keit	[[
*v	*v	*v	*	*	*	*	*	*	*	*
*	*v	*v	*	*	*	*	*	*
=27	=27	=27	=27	=27	=27	=27	=27
*M9/4	*M9/4	*	*M9/4	*	*	*	*
*^	*^	*	*	*	*	*	*
!	!	!LO:TX:i:a:t=allarg.	!	!	!	!	!	!	!
4En/	2.CCn\ 2.GGn	4cn/ 4en	2.B-X\	<	(2dd-X\	-ci-	re-	glei-	.
4Dn/ 4Fn	.	4dn/ 4fn	.	.	.	.	.	.	.
4En/) 4Gn	.	4en/) 4gn	.	.	4ccn\)	.	.	.	.
(2.G~:/ 2.B-X:	1.FFF: 1.FF: 1.C:	(2.g~/ 2.b-X	1.c	[ >	[2.cc\	-sze.	-ves.	-ten.	.
2.Fn;/) 2.An	.	2.fn;/) 2.an	.	] ppp	8cc\]	.	.	.	.
.	.	.	.	.	8r	.	.	.	.
.	.	.	.	.	4r	.	.	.	.
.	.	.	.	.	4r	.	.	.	.
*v	*v	*	*	*	*	*	*	*	*
*	*v	*v	*	*	*	*	*	*
==	==	==	==	==	==	==	==
*-	*-	*-	*-	*-	*-	*-	*-
!!!system-decoration: (s1){(s2,s3)}
!!!RDF**kern: Z = caesura
!!!RDF**kern: > = above
!!!RDF**kern: < = below
!!!ENC: Berenika Jozajtis
!!!END: 2023-09-03
!!!ENC: Leszek Kubiak
!!!END: 2023-09-27
